packages/core/src/svgs/tokens/mono/HAKA.svg

<svg width="24" height="24" viewBox="0 0 24 24" fill="none" xmlns="http://www.w3.org/2000/svg">
<path d="M11.412 6.12012H4.35522V10.2366H7.88359V13.8355L9.05971 16.1172V9.06041H5.53134V7.29624H10.2359V19.0574L11.412 21.3156V6.12012ZM19.6448 9.06041V10.2366H16.7046V13.7356L16.6575 13.759L16.7046 13.7649L13.7642 19.0574L12.5882 21.4097V6.12012H19.6448V7.29624H13.7642V16.8993L15.5284 13.6178V9.06041H19.6448Z" fill="white"/>
<path d="M12.6057 21.9803C14.3741 21.8736 16.0823 21.2986 17.5556 20.3147C19.0288 19.3307 20.2141 17.9728 20.99 16.3802C21.766 14.7877 22.1048 13.0173 21.9718 11.2507C21.8387 9.4842 21.2387 7.78461 20.2329 6.32616V7.88451H19.1332C19.2449 8.07858 19.3448 8.27264 19.439 8.47257H20.2329V12.001C20.234 13.887 19.5874 15.7162 18.4013 17.1827C17.2153 18.6492 15.5617 19.664 13.7171 20.0574L12.6057 21.9803ZM12.2941 21.9921V20.2279C12.0981 20.2349 11.9019 20.2349 11.706 20.2279V21.9921C11.9019 21.9977 12.098 21.9977 12.2941 21.9921ZM11.3944 21.9803C9.62594 21.8736 7.91765 21.2986 6.44443 20.3147C4.97122 19.3307 3.78595 17.9728 3.00997 16.3802C2.234 14.7877 1.89519 13.0173 2.02823 11.2507C2.16128 9.4842 2.76138 7.78461 3.76714 6.32616V12.001C3.76607 13.887 4.41262 15.7162 5.59866 17.1827C6.78468 18.6492 8.43827 19.664 10.2829 20.0574L11.3944 21.9803ZM19.6272 5.53226C17.7865 3.37409 15.0521 2.00391 12 2.00391C8.94208 2.00391 6.21347 3.37409 4.37871 5.53226H6.90738C8.30697 4.42671 10.0771 3.76808 12 3.76808C13.9229 3.76808 15.693 4.42671 17.0926 5.53226H19.6272Z" fill="white"/>
<path d="M14.3462 21.7218C16.3377 21.2399 18.1333 20.1581 19.4901 18.6225C20.8469 17.0869 21.6992 15.1718 21.9322 13.136C21.3205 13.3183 20.6855 13.4771 20.0739 13.6124C19.78 15.0799 19.0923 16.44 18.0843 17.5463C17.0762 18.6528 15.786 19.4639 14.3521 19.8928V21.7159L14.3462 21.7218Z" fill="white"/>
</svg>

<svg xmlns="http://www.w3.org/2000/svg" width="24" height="24" fill="none" viewBox="0 0 24 24">
    <path fill="#fff" d="M11.412 6.12H4.355v4.117h3.529v3.598l1.176 2.282V9.06H5.53V7.296h4.705v11.761l1.176 2.259zm8.233 2.94v1.177h-2.94v3.499l-.047.023.047.006-2.94 5.292-1.177 2.353V6.12h7.057v1.176h-5.88V16.9l1.763-3.281V9.06z"/>
    <path fill="#fff" d="M12.606 21.98a9.997 9.997 0 0 0 7.627-15.654v1.559h-1.1q.166.29.306.588h.794V12a8.23 8.23 0 0 1-6.516 8.056zm-.312.012v-1.764a8 8 0 0 1-.588 0v1.764q.294.009.588 0m-.9-.012A9.997 9.997 0 0 1 3.767 6.326v5.675a8.23 8.23 0 0 0 6.516 8.056zm8.233-16.448A10 10 0 0 0 12 2.004a9.97 9.97 0 0 0-7.621 3.528h2.528A8.2 8.2 0 0 1 12 3.768c1.923 0 3.693.659 5.093 1.764z"/>
    <path fill="#fff" d="M14.346 21.722a10 10 0 0 0 7.586-8.586c-.611.182-1.246.341-1.858.476a8.24 8.24 0 0 1-5.722 6.28v1.824z"/>
</svg>
